X:1
T:Come if you Dare
L:1/8
M:6/8
I:linebreak $
K:Bb
V:1 treble 
V:1
 F | BBB AcF | BBB AcF | Bdf fed | cdB AGF | BBB AcF | BBB AcF | Bdf fgf |$ edc B2 :: d | %10
 e2 e efe | d2 d ded | c2 c cde | fdB Bcd | e2 e efe | d2 d ded | cde FGA |$ B3 B z :| %18
